X:1
T:Gavotte ton tripl
C:traditionnel, fichier abc : Bernard Loffet
L:1/8
Q:450
M:9/8
K:C
|: [E2A,,2]A [A2A,2]c [c2A,2]A | [c3F,,3] [A2F,2]A [A2G,2]G | [A3A,,3] [A3A,3] :|: [E2A,,2]A [A2A,2]c [c2A,2]A | \
 [c3F,,3] [A2F,2]c [e3C,3] | [e2C,,2]d [e3C,3] | [e2C,,2]g [g2C,2]f [e2C,2]f | [e3A,,3] [d3A,3] [c2A,2]e | \
 [e2D,,2]e [d3D,3] | [c3F,,3] [A2F,2]d [d2F,2]d | [c3G,,3] [A2G,2]A [A2G,2]G | [A3A,,3] [A3A,3] :| \
W:Created with TablEdit http://www.tabledit.com/ by Bernard Loffet
